!!!COM: Bach, Johann Sebastian
!!!OTL@@DE: 90. Hast du denn, Liebster, dein Angesicht
!!!OTL@EN: Hast Thou then, Jesus, hidden Thy countenance
!!!SCA: BWV 57.8
**harm	**root	**kern	**kern	**kern	**kern
*staff2	*	*staff2	*staff2	*staff1	*staff1
*Iorgan	*Ipiano	*Iorgan	*Iorgan	*Iorgan	*Iorgan
*>[A,A,B]	*>[A,A,B]	*>[A,A,B]	*>[A,A,B]	*>[A,A,B]	*>[A,A,B]
*>norep[A,B]	*>norep[A,B]	*>norep[A,B]	*>norep[A,B]	*>norep[A,B]	*>norep[A,B]
*>A	*>A	*>A	*>A	*>A	*>A
!	!	!bass	!tenor	!alto	!sprno
*	*	*clefF4	*clefF4	*clefG2	*clefG2
*k[f#c#]	*k[f#c#]	*k[f#c#]	*k[f#c#]	*k[f#c#]	*k[f#c#]
*D:	*D:	*D:	*D:	*D:	*D:
*M3/4	*M3/4	*M3/4	*M3/4	*M3/4	*M3/4
*MM80	*MM80	*MM80	*MM80	*MM80	*MM80
=1-	=1-	=1-	=1-	=1-	=1-
I	4BB-	4d	4f#	4a	4dd
I	4BB-	4d	4f#	4a	4dd
Vb	4FF	4c#	4e	4a	4aa
=2	=2	=2	=2	=2	=2
I	4.BB-	4.d	4.d	4.a	4.ff#
Vb	8FF	8c#	8e	8a	8ee
vi	4GG	4B	8f#L	4b	4dd
.	.	.	8g#J	.	.
=3	=3	=3	=3	=3	=3
V	4FF	4A	4a	4e	4cc#
Vc	4FF	4E	4a	4e	8ddL
.	.	.	.	.	8cc#
V7d	4FF	4G	4c#	4e	8b
.	.	.	.	.	8aJ
=4	=4	=4	=4	=4	=4
Ib	4BB-	4F#	4d	4a	4dd
viiob	4AA	4E	4G	8bL	4ee
.	.	.	.	8cc#	.
I	4BB-	4D	4A	8dd	8ff#L
.	.	.	.	8eeJ	8ggJ
=5	=5	=5	=5	=5	=5
V7	2FF	2A	4a	2cc#	2ee
.	.	.	4g	.	.
I;	4BB-;	4D;	4f#;	4a;	4dd;
=6:|!	=6:|!	=6:|!	=6:|!	=6:|!	=6:|!
*>B	*>B	*>B	*>B	*>B	*>B
I	4BB-	4D	4f#	4dd	4aa
viiob	4AA	4E	4g	4cc#	8ggL
.	.	.	.	.	8ff#
Ib	4BB-	4F#	4a	4a	8ee
.	.	.	.	.	8ddJ
=7	=7	=7	=7	=7	=7
!!linebreak: 2
IV;	2EE-;	2G;	2g;	2dd;	2bb;
r	4r	4r	4r	4r	4r
=8	=8	=8	=8	=8	=8
I	4BB-	4d	4a	4dd	4ff#
IVb	4EE-	8c#L	4b	4dd	4gg
.	.	8B	.	.	.
V	4FF	8A	4e	8cc#L	4aa
.	.	8GJ	.	8bJ	.
=9	=9	=9	=9	=9	=9
iii7	4DD	4F#	4e	4a	4aa
Ib	4BB-	4F#	4d	4dd	8bbL
.	.	.	.	.	8aa
IV	4EE-	4G	4d	4b	8gg
.	.	.	.	.	8ff#J
=10	=10	=10	=10	=10	=10
V;	2FF;	2A;	2a;	2cc#;	2ee;
r	4r	4r	4r	4r	4r
=11	=11	=11	=11	=11	=11
Ib	4BB-	4F#	4d	4a	4a
Vb/V	4CC	4G#	8c#L	4e	4b
.	.	.	8BJ	.	.
viioD7/VI	4FF#	4A#	4gy	4e	4cc#
=12	=12	=12	=12	=12	=12
vi	4GG	4B	4f#	4d	4dd
Vb	4FF	4c#	4e	4a	4ee
I	4BB-	4d	4d	4a	8ff#L
.	.	.	.	.	8ggJ
=13	=13	=13	=13	=13	=13
Ic	4BB-	2A	4d	4.a	2ee
V7	4FF	.	4c#	.	.
.	.	.	.	8g	.
I;	4BB-;	4D;	4A;	4f#;	4dd;
==	==	==	==	==	==
*-	*-	*-	*-	*-	*-
!!!ENC: Craig Stuart Sapp
!!!END: 2004/12/06/
!!!ONB: Harmony and Root analysis done manually by Craig Sapp
!!chor2scor: -l 2 -s 0.6 -o %b.pmx
